X:1
T:Title
%%score { 1 | 2 }
L:1/8
M:4/4
K:G
V:1 treble nm="Grand Piano"
V:2 bass 
V:1
 z4 z2[Q:1/4=106] D2 | G3 F G2 A2 | B3 _B =B2 c2 | d2 d2 c2 B2 |[M:3/4] [DFA]6 |[M:1/4] D2 | %6
[M:4/4] [CFA]3 [B,=F^G] [C^FA]2 [GB]2 | [Ac]3 [^GB] [Ac]2 [FA]2 | B2 G2 F2 [^CE]2 | D6 z2 | %10
 D2 B2 G2 z2 | D2 c2 A2 z2 | B2 z2 [G^c]2 z2 | [Fd]6 [DAc]2 | [DGB]3 [^CG_B] [DG=B]2 [DG]2 | %15
 [CEG]3 [G,DF] [G,CE]2 z2 | [G,B,D]2 z2 [CDA]2 z2 |[M:3/4] [B,DG]6 |] %18
V:2
 z4 z2 [G,B,]2 | [G,B,D]3 [G,A,D] [G,B,D]2 [G,CD]2 | [G,DG]3 [G,^CG] [G,DG]2 [A,DG]2 | %3
 [B,DG]2 [B,DG]2 [A,DF]2 [G,DG]2 |[M:3/4][K:bass] D,6 |[M:1/4] D,2 |[M:4/4] D,3 D, D,2 [D,D]2 | %7
 [D,D]3 [D,D] [D,D]2 [D,D]2 | [G,DG]2 [G,B,E]2[K:bass] [A,D]2 [A,,G,]2 | [D,F,]6 z2 | %10
 [G,B,]2 [G,D]2 [G,B,]2 z2 | [D,F,]2 [D,A,D]2 [D,F,D]2 z2 | [G,D]2 z2 [E,A,]2 z2 | [D,A,]6 D,2 | %14
 G,3 G, G,2 B,,2 | C,3 C, C,2 z2 | D,2 z2 D,2 z2 |[M:3/4] G,,6 |] %18

